app/dist/common/images/capstone-green-energy-corporation.svg

<svg height="18" viewBox="0 0 18 18" width="18" xmlns="http://www.w3.org/2000/svg"><path d="m0 0h18v18h-18z" fill="#f0f3fa"/><g fill="#1d8e3c"><path d="m13 5h-5.67a2.33 2.33 0 0 0 -2.33 2.33v5.67h5.67a2.33 2.33 0 0 0 2.33-2.33zm-5.67-1a3.33 3.33 0 0 0 -3.33 3.33v6.67h6.67c1.83 0 3.33-1.5 3.33-3.33v-6.67z" fill-rule="evenodd"/><circle cx="7.5" cy="7.5" r="1.5"/><circle cx="10.5" cy="7.5" r="1.5"/><circle cx="7.5" cy="10.5" r="1.5"/><circle cx="10.5" cy="10.5" r="1.5"/></g></svg>

<!-- by TradingView --><svg width="18" height="18" viewBox="0 0 18 18" xmlns="http://www.w3.org/2000/svg"><path fill="#F0F3FA" d="M0 0h18v18H0z"/><path fill-rule="evenodd" d="M13 5H7.33A2.33 2.33 0 0 0 5 7.33V13h5.67A2.33 2.33 0 0 0 13 10.67V5ZM7.33 4A3.33 3.33 0 0 0 4 7.33V14h6.67C12.5 14 14 12.5 14 10.67V4H7.33Z" fill="#1D8E3C"/><circle cx="7.5" cy="7.5" r="1.5" fill="#1D8E3C"/><circle cx="10.5" cy="7.5" r="1.5" fill="#1D8E3C"/><circle cx="7.5" cy="10.5" r="1.5" fill="#1D8E3C"/><circle cx="10.5" cy="10.5" r="1.5" fill="#1D8E3C"/></svg>
